icons/evolvere-blue-folders-flat-vivid-dark-fallback/apps/64/filezilla.svg

<?xml version="1.0" encoding="UTF-8" standalone="no"?>
<!-- Created with Inkscape (http://www.inkscape.org/) -->

<svg
   xmlns:dc="http://purl.org/dc/elements/1.1/"
   xmlns:cc="http://creativecommons.org/ns#"
   xmlns:rdf="http://www.w3.org/1999/02/22-rdf-syntax-ns#"
   xmlns:svg="http://www.w3.org/2000/svg"
   xmlns="http://www.w3.org/2000/svg"
   xmlns:xlink="http://www.w3.org/1999/xlink"
   xmlns:sodipodi="http://sodipodi.sourceforge.net/DTD/sodipodi-0.dtd"
   xmlns:inkscape="http://www.inkscape.org/namespaces/inkscape"
   width="64"
   height="64"
   id="svg13094"
   version="1.1"
   inkscape:version="0.91+devel r"
   sodipodi:docname="filezilla.svg">
  <sodipodi:namedview
     id="base"
     pagecolor="#ffffff"
     bordercolor="#666666"
     borderopacity="1.0"
     inkscape:pageopacity="0"
     inkscape:pageshadow="2"
     inkscape:zoom="8.0000005"
     inkscape:cx="33.94589"
     inkscape:cy="36.130374"
     inkscape:document-units="px"
     inkscape:current-layer="svg13094"
     showgrid="true"
     inkscape:snap-bbox="true"
     inkscape:bbox-paths="true"
     inkscape:bbox-nodes="true"
     inkscape:snap-bbox-edge-midpoints="true"
     inkscape:snap-bbox-midpoints="true"
     inkscape:object-paths="true"
     inkscape:snap-intersection-paths="true"
     inkscape:object-nodes="true"
     inkscape:snap-smooth-nodes="true"
     inkscape:snap-midpoints="true"
     inkscape:snap-object-midpoints="true"
     inkscape:snap-center="true"
     showguides="true"
     inkscape:guide-bbox="true"
     inkscape:window-width="1920"
     inkscape:window-height="1023"
     inkscape:window-x="-10"
     inkscape:window-y="35"
     inkscape:window-maximized="1"
     inkscape:snap-global="true"
     fit-margin-top="0"
     fit-margin-left="0"
     fit-margin-right="0"
     fit-margin-bottom="0"
     showborder="true"
     inkscape:showpageshadow="false"
     inkscape:snap-page="true">
    <inkscape:grid
       type="xygrid"
       id="grid3075"
       empspacing="5"
       visible="true"
       enabled="true"
       snapvisiblegridlinesonly="true"
       originx="1.6362304e-08px"
       originy="18px" />
  </sodipodi:namedview>
  <defs
     id="defs13096">
    <linearGradient
       id="linearGradient4285">
      <stop
         offset="0"
         style="stop-color:#ff5a2a;stop-opacity:1"
         id="stop4287" />
      <stop
         offset="1"
         style="stop-color:#972f1c;stop-opacity:1"
         id="stop4289" />
    </linearGradient>
    <linearGradient
       inkscape:collect="always"
       xlink:href="#linearGradient4285"
       id="linearGradient4283"
       x1="4"
       y1="36"
       x2="60"
       y2="36"
       gradientUnits="userSpaceOnUse" />
  </defs>
  <metadata
     id="metadata13099">
    <rdf:RDF>
      <cc:Work
         rdf:about="">
        <dc:format>image/svg+xml</dc:format>
        <dc:type
           rdf:resource="http://purl.org/dc/dcmitype/StillImage" />
        <dc:title></dc:title>
      </cc:Work>
    </rdf:RDF>
  </metadata>
  <path
     id="path3454"
     d="m 0,8 0,54 2,2 c 0,-1.104569 0.8954305,-2 2,-2 1.1045695,0 2,0.895431 2,2 l 4,0 c 0,-1.104569 0.895431,-2 2,-2 1.104569,0 2,0.895431 2,2 l 4,0 c 0,-1.104569 0.895431,-2 2,-2 1.104569,0 2,0.895431 2,2 l 4,0 c 0,-1.104569 0.895431,-2 2,-2 1.104569,0 2,0.895431 2,2 l 2,0 2,0 c 0,-1.104569 0.895431,-2 2,-2 1.104569,0 2,0.895431 2,2 l 4,0 c 0,-1.104569 0.895431,-2 2,-2 1.104569,0 2,0.895431 2,2 l 4,0 c 0,-1.104569 0.895431,-2 2,-2 1.104569,0 2,0.895431 2,2 l 4,0 c 0,-1.104569 0.895431,-2 2,-2 1.104569,0 2,0.895431 2,2 l 2,-2 0,-54 -2,0 c 0,1.1045695 -0.895431,2 -2,2 -1.104569,0 -2,-0.8954305 -2,-2 l -4,0 c 0,1.1045695 -0.895431,2 -2,2 -1.104569,0 -2,-0.8954305 -2,-2 l -4,0 c 0,1.1045695 -0.895431,2 -2,2 -1.104569,0 -2,-0.8954305 -2,-2 l -4,0 c 0,1.1045695 -0.895431,2 -2,2 -1.104569,0 -2,-0.8954305 -2,-2 l -2,0 -2,0 c 0,1.1045695 -0.895431,2 -2,2 -1.104569,0 -2,-0.8954305 -2,-2 l -4,0 c 0,1.1045695 -0.895431,2 -2,2 -1.104569,0 -2,-0.8954305 -2,-2 l -4,0 c 0,1.1045695 -0.895431,2 -2,2 -1.104569,0 -2,-0.8954305 -2,-2 L 6,8 C 6,9.1045695 5.1045695,10 4,10 2.8954305,10 2,9.1045695 2,8 z"
     style="color:#000000;fill:url(#linearGradient4283);fill-opacity:1;fill-rule:nonzero;stroke:none;stroke-width:2.28571415;marker:none;visibility:visible;display:inline;overflow:visible;enable-background:accumulate"
     inkscape:connector-curvature="0"
     sodipodi:nodetypes="cccsccsccsccscccsccsccsccsccccsccsccsccscccsccsccsccscc" />
  <path
     sodipodi:nodetypes="cccccccsccsccsccscccsccsccsccsc"
     inkscape:connector-curvature="0"
     id="path4307"
     d="m 2,0 -2,1 0,9 32,0 32,0 0,-9 -2,-1 C 62,1.1045695 61.104569,2 60,2 58.895431,2 58,1.1045695 58,0 L 54,0 C 54,1.1045695 53.104569,2 52,2 50.895431,2 50,1.1045695 50,0 L 46,0 C 46,1.1045695 45.104569,2 44,2 42.895431,2 42,1.1045695 42,0 L 38,0 C 38,1.1045695 37.104569,2 36,2 34.895431,2 34,1.1045695 34,0 L 32,0 30,0 C 30,1.1045695 29.104569,2 28,2 26.895431,2 26,1.1045695 26,0 L 22,0 C 22,1.1045695 21.104569,2 20,2 18.895431,2 18,1.1045695 18,0 L 14,0 C 14,1.1045695 13.104569,2 12,2 10.895431,2 10,1.1045695 10,0 L 6,0 C 6,1.1045695 5.1045695,2 4,2 2.8954305,2 2,1.1045695 2,0 z"
     style="color:#000000;fill:#ff5a2a;fill-opacity:1;fill-rule:nonzero;stroke:none;marker:none;visibility:visible;display:inline;overflow:visible;enable-background:accumulate" />
  <path
     inkscape:connector-curvature="0"
     style="color:#000000;fill:#ca3c22;fill-opacity:1;fill-rule:nonzero;stroke:none;stroke-width:2.28571415;marker:none;visibility:visible;display:inline;overflow:visible;enable-background:accumulate"
     d="m 0,8 0,2 c 1.104569,0 2,0.895431 2,2 0,1.10457 -0.895431,2 -2,2 l 0,4 c 1.10457,0 2,0.895431 2,2 0,1.104569 -0.89543,2 -2,2 l 0,4 c 1.10457,0 2,0.895431 2,2 0,1.104569 -0.89543,2 -2,2 l 0,4 c 1.10457,0 2,0.895431 2,2 0,1.104569 -0.89543,2 -2,2 l 0,4 c 1.10457,0 2,0.895431 2,2 0,1.104569 -0.89543,2 -2,2 l 0,4 c 1.10457,0 2,0.895431 2,2 0,1.104569 -0.89543,2 -2,2 l 0,4 c 1.10457,0 2,0.895431 2,2 0,1.104569 -0.89543,2 -2,2 l 2,2 c 0,-1.104569 0.8954305,-2 2,-2 1.1045695,0 2,0.895431 2,2 l 4,0 c 0,-1.104569 0.895431,-2 2,-2 1.104569,0 2,0.895431 2,2 l 4,0 c 0,-1.104569 0.895431,-2 2,-2 1.104569,0 2,0.895431 2,2 l 4,0 c 0,-1.104569 0.895431,-2 2,-2 1.104569,0 2,0.895431 2,2 l 2,0 2,0 c 0,-1.104569 0.895431,-2 2,-2 1.104569,0 2,0.895431 2,2 l 4,0 c 0,-1.104569 0.895431,-2 2,-2 1.104569,0 2,0.895431 2,2 l 4,0 c 0,-1.104569 0.895431,-2 2,-2 1.104569,0 2,0.895431 2,2 l 4,0 c 0,-1.104569 0.895431,-2 2,-2 1.104569,0 2,0.895431 2,2 l 2,-2 c -1.104569,0 -2,-0.895431 -2,-2 0,-1.104569 0.895431,-2 2,-2 l 0,-4 c -1.104569,0 -2,-0.895431 -2,-2 0,-1.104569 0.895431,-2 2,-2 l 0,-4 c -1.104569,0 -2,-0.895431 -2,-2 0,-1.104569 0.895431,-2 2,-2 l 0,-4 c -1.104569,0 -2,-0.895431 -2,-2 0,-1.104569 0.895431,-2 2,-2 l 0,-4 c -1.104569,0 -2,-0.895431 -2,-2 0,-1.104569 0.895431,-2 2,-2 l 0,-4 c -1.10457,0 -2,-0.895431 -2,-2 0,-1.104569 0.89543,-2 2,-2 l 0,-4 c -1.10457,0 -2,-0.89543 -2,-2 0,-1.104569 0.89543,-2 2,-2 l 0,-2 -2,0 c 0,1.1045695 -0.895431,2 -2,2 -1.104569,0 -2,-0.8954305 -2,-2 l -4,0 c 0,1.1045695 -0.895431,2 -2,2 -1.104569,0 -2,-0.8954305 -2,-2 l -4,0 c 0,1.1045695 -0.895431,2 -2,2 -1.104569,0 -2,-0.8954305 -2,-2 l -4,0 c 0,1.1045695 -0.895431,2 -2,2 -1.104569,0 -2,-0.8954305 -2,-2 l -2,0 -2,0 c 0,1.1045695 -0.895431,2 -2,2 -1.104569,0 -2,-0.8954305 -2,-2 l -4,0 c 0,1.1045695 -0.895431,2 -2,2 -1.104569,0 -2,-0.8954305 -2,-2 l -4,0 c 0,1.1045695 -0.895431,2 -2,2 -1.104569,0 -2,-0.8954305 -2,-2 L 6,8 C 6,9.1045695 5.1045695,10 4,10 2.8954305,10 2,9.1045695 2,8 L 0,8 z"
     id="path4413" />
  <g
     id="g4333"
     style="fill:#e1421d;fill-opacity:1">
    <path
       id="path6502"
       d="M 2 0 L 2 8 C 2 9.1045695 2.8954305 10 4 10 C 5.1045695 10 6 9.1045695 6 8 L 6 0 C 6 1.1045695 5.1045695 2 4 2 C 2.8954305 2 2 1.1045695 2 0 z "
       style="color:#000000;fill:#e1421d;fill-opacity:1;fill-rule:nonzero;stroke:none;marker:none;visibility:visible;display:inline;overflow:visible;enable-background:accumulate" />
    <use
       height="64"
       width="64"
       transform="translate(8,0)"
       id="use4369"
       xlink:href="#path6502"
       y="0"
       x="0"
       style="fill:#e1421d;fill-opacity:1" />
    <use
       height="64"
       width="64"
       transform="translate(16,0)"
       id="use4371"
       xlink:href="#path6502"
       y="0"
       x="0"
       style="fill:#e1421d;fill-opacity:1" />
    <use
       height="64"
       width="64"
       transform="translate(24,0)"
       id="use4373"
       xlink:href="#path6502"
       y="0"
       x="0"
       style="fill:#e1421d;fill-opacity:1" />
    <use
       height="64"
       width="64"
       transform="translate(32,0)"
       id="use4375"
       xlink:href="#path6502"
       y="0"
       x="0"
       style="fill:#e1421d;fill-opacity:1" />
    <use
       height="64"
       width="64"
       transform="translate(40,0)"
       id="use4377"
       xlink:href="#path6502"
       y="0"
       x="0"
       style="fill:#e1421d;fill-opacity:1" />
    <use
       height="64"
       width="64"
       transform="translate(48,0)"
       id="use4379"
       xlink:href="#path6502"
       y="0"
       x="0"
       style="fill:#e1421d;fill-opacity:1" />
    <use
       x="0"
       y="0"
       xlink:href="#path6502"
       id="use4331"
       transform="translate(56,0)"
       width="64"
       height="64"
       style="fill:#e1421d;fill-opacity:1" />
  </g>
  <path
     d="M 64,12 62,10 64,9 z"
     id="path3028"
     style="fill:#1f0700;fill-opacity:0.13759861"
     inkscape:connector-curvature="0"
     sodipodi:nodetypes="cccc" />
  <g
     id="g3043"
     inkscape:export-filename="folder.png"
     inkscape:export-xdpi="90"
     inkscape:export-ydpi="90"
     transform="translate(-0.62500009,0.082283)" />
  <g
     id="scalable"
     transform="matrix(1.0385892,0,0,1.0385892,1214.7222,1878.8121)"
     inkscape:label="#g3701"
     style="fill:#ffffff" />
  <path
     style="fill:#e9e6e5;fill-opacity:1"
     id="path4419"
     d="m 49.804425,30.586165 -24.826667,0 1.295641,-6.061777 15.131438,0 L 42.793002,18 l -21.748848,0 -6.848579,32.298537 6.571004,0 3.007213,-14.113493 15.760899,0 L 25.839524,49.743119 28.245751,54 c 1.110303,-0.740179 2.914973,-0.832986 4.164492,-0.832986 2.221461,0 4.396231,0.740748 6.662957,0.740748 2.078547,0 4.206342,-0.138926 7.677321,-1.804898 l 1.212793,-5.691401 c -2.360391,0.971341 -5.852722,1.897134 -8.890114,1.897134 -1.248663,0 -2.405656,-0.277568 -3.608769,-0.462612 l 13.275527,-12.909849 1.064467,-4.349971 z"
     inkscape:connector-curvature="0" />
  <path
     style="fill:#5e0f00;fill-opacity:0.13059033;color:#000000;fill-rule:nonzero;stroke:none;stroke-width:2.28571415;marker:none;visibility:visible;display:inline;overflow:visible;enable-background:accumulate"
     d="M 42.5625 19 L 41.40625 24.53125 L 26.28125 24.53125 L 24.96875 30.59375 L 26.1875 30.59375 L 27.28125 25.53125 L 42.40625 25.53125 L 43.78125 19 L 42.5625 19 z M 49.5625 31.59375 L 48.75 34.9375 L 35.46875 47.84375 C 36.04983 47.933123 36.612413 48.065408 37.1875 48.15625 L 49.75 35.9375 L 50.8125 31.59375 L 49.5625 31.59375 z M 23.78125 36.1875 L 20.78125 50.3125 L 15.40625 50.3125 L 15.1875 51.3125 L 21.78125 51.3125 L 24.78125 37.1875 L 38.53125 37.1875 L 39.53125 36.1875 L 23.78125 36.1875 z M 48.96875 47.40625 C 48.576357 47.567726 48.103917 47.720085 47.65625 47.875 L 46.75 52.09375 C 43.279021 53.759722 41.141047 53.90625 39.0625 53.90625 C 36.795774 53.90625 34.627711 53.15625 32.40625 53.15625 C 31.269668 53.15625 29.677339 53.241549 28.5625 53.8125 L 29.25 55 C 30.360303 54.259821 32.156731 54.15625 33.40625 54.15625 C 35.627711 54.15625 37.795774 54.90625 40.0625 54.90625 C 42.141047 54.90625 44.279021 54.759722 47.75 53.09375 L 48.96875 47.40625 z "
     id="path2314" />
  <path
     style="fill:#1f0700;fill-opacity:0.06978802;fill-rule:nonzero"
     d="M 2 0 L 0 1 L 2.28125 1 C 2.1104918 0.7054558 2 0.36496524 2 0 z M 6 0 C 6 0.36496524 5.8895082 0.7054558 5.71875 1 L 10.28125 1 C 10.110492 0.7054558 10 0.36496524 10 0 L 6 0 z M 14 0 C 14 0.36496524 13.889508 0.7054558 13.71875 1 L 18.28125 1 C 18.110492 0.7054558 18 0.36496524 18 0 L 14 0 z M 22 0 C 22 0.36496524 21.889508 0.7054558 21.71875 1 L 26.28125 1 C 26.110492 0.7054558 26 0.36496524 26 0 L 22 0 z M 30 0 C 30 0.36496524 29.889508 0.7054558 29.71875 1 L 32 1 L 34.28125 1 C 34.110492 0.7054558 34 0.36496524 34 0 L 32 0 L 30 0 z M 38 0 C 38 0.36496524 37.889508 0.7054558 37.71875 1 L 42.28125 1 C 42.110492 0.7054558 42 0.36496524 42 0 L 38 0 z M 46 0 C 46 0.36496524 45.889508 0.7054558 45.71875 1 L 50.28125 1 C 50.110492 0.7054558 50 0.36496524 50 0 L 46 0 z M 54 0 C 54 0.36496524 53.889508 0.7054558 53.71875 1 L 58.28125 1 C 58.110492 0.7054558 58 0.36496524 58 0 L 54 0 z M 62 0 C 62 0.36496524 61.889508 0.7054558 61.71875 1 L 64 1 L 62 0 z "
     id="path4444" />
</svg>

<svg xmlns="http://www.w3.org/2000/svg" xmlns:xlink="http://www.w3.org/1999/xlink" viewBox="0 0 64 64"><defs><linearGradient id="0" x1="4" x2="60" gradientUnits="userSpaceOnUse"><stop stop-color="#ff5a2a"/><stop offset="1" stop-color="#972f1c"/></linearGradient></defs><g color="#000"><path d="m0 8v54l2 2c0-1.105.895-2 2-2 1.105 0 2 .895 2 2h4c0-1.105.895-2 2-2 1.105 0 2 .895 2 2h4c0-1.105.895-2 2-2 1.105 0 2 .895 2 2h4c0-1.105.895-2 2-2 1.105 0 2 .895 2 2h2 2c0-1.105.895-2 2-2 1.105 0 2 .895 2 2h4c0-1.105.895-2 2-2 1.105 0 2 .895 2 2h4c0-1.105.895-2 2-2 1.105 0 2 .895 2 2h4c0-1.105.895-2 2-2 1.105 0 2 .895 2 2l2-2v-54h-2c0 1.105-.895 2-2 2-1.105 0-2-.895-2-2h-4c0 1.105-.895 2-2 2-1.105 0-2-.895-2-2h-4c0 1.105-.895 2-2 2-1.105 0-2-.895-2-2h-4c0 1.105-.895 2-2 2-1.105 0-2-.895-2-2h-2-2c0 1.105-.895 2-2 2-1.105 0-2-.895-2-2h-4c0 1.105-.895 2-2 2-1.105 0-2-.895-2-2h-4c0 1.105-.895 2-2 2-1.105 0-2-.895-2-2h-4c0 1.105-.895 2-2 2-1.105 0-2-.895-2-2z" fill="url(#0)"/><path d="m2 0l-2 1v9h32 32v-9l-2-1c0 1.105-.895 2-2 2-1.105 0-2-.895-2-2h-4c0 1.105-.895 2-2 2-1.105 0-2-.895-2-2h-4c0 1.105-.895 2-2 2-1.105 0-2-.895-2-2h-4c0 1.105-.895 2-2 2-1.105 0-2-.895-2-2h-2-2c0 1.105-.895 2-2 2-1.105 0-2-.895-2-2h-4c0 1.105-.895 2-2 2-1.105 0-2-.895-2-2h-4c0 1.105-.895 2-2 2-1.105 0-2-.895-2-2h-4c0 1.105-.895 2-2 2-1.105 0-2-.895-2-2" fill="#ff5a2a"/><path d="m0 8v2c1.105 0 2 .895 2 2 0 1.105-.895 2-2 2v4c1.105 0 2 .895 2 2 0 1.105-.895 2-2 2v4c1.105 0 2 .895 2 2 0 1.105-.895 2-2 2v4c1.105 0 2 .895 2 2 0 1.105-.895 2-2 2v4c1.105 0 2 .895 2 2 0 1.105-.895 2-2 2v4c1.105 0 2 .895 2 2 0 1.105-.895 2-2 2v4c1.105 0 2 .895 2 2 0 1.105-.895 2-2 2l2 2c0-1.105.895-2 2-2 1.105 0 2 .895 2 2h4c0-1.105.895-2 2-2 1.105 0 2 .895 2 2h4c0-1.105.895-2 2-2 1.105 0 2 .895 2 2h4c0-1.105.895-2 2-2 1.105 0 2 .895 2 2h2 2c0-1.105.895-2 2-2 1.105 0 2 .895 2 2h4c0-1.105.895-2 2-2 1.105 0 2 .895 2 2h4c0-1.105.895-2 2-2 1.105 0 2 .895 2 2h4c0-1.105.895-2 2-2 1.105 0 2 .895 2 2l2-2c-1.105 0-2-.895-2-2 0-1.105.895-2 2-2v-4c-1.105 0-2-.895-2-2 0-1.105.895-2 2-2v-4c-1.105 0-2-.895-2-2 0-1.105.895-2 2-2v-4c-1.105 0-2-.895-2-2 0-1.105.895-2 2-2v-4c-1.105 0-2-.895-2-2 0-1.105.895-2 2-2v-4c-1.105 0-2-.895-2-2 0-1.105.895-2 2-2v-4c-1.105 0-2-.895-2-2 0-1.105.895-2 2-2v-2h-2c0 1.105-.895 2-2 2-1.105 0-2-.895-2-2h-4c0 1.105-.895 2-2 2-1.105 0-2-.895-2-2h-4c0 1.105-.895 2-2 2-1.105 0-2-.895-2-2h-4c0 1.105-.895 2-2 2-1.105 0-2-.895-2-2h-2-2c0 1.105-.895 2-2 2-1.105 0-2-.895-2-2h-4c0 1.105-.895 2-2 2-1.105 0-2-.895-2-2h-4c0 1.105-.895 2-2 2-1.105 0-2-.895-2-2h-4c0 1.105-.895 2-2 2-1.105 0-2-.895-2-2h-2" fill="#ca3c22"/></g><g fill="#e1421d"><path id="1" d="m2 0v8c0 1.105.895 2 2 2 1.105 0 2-.895 2-2v-8c0 1.105-.895 2-2 2-1.105 0-2-.895-2-2" fill="#e1421d" color="#000"/><use height="64" width="64" transform="translate(8)" xlink:href="#1"/><use height="64" width="64" transform="translate(16)" xlink:href="#1"/><use height="64" width="64" transform="translate(24)" xlink:href="#1"/><use height="64" width="64" transform="translate(32)" xlink:href="#1"/><use height="64" width="64" transform="translate(40)" xlink:href="#1"/><use height="64" width="64" transform="translate(48)" xlink:href="#1"/><use xlink:href="#1" transform="translate(56)" width="64" height="64"/></g><path d="m64 12l-2-2 2-1z" fill="#1f0700" fill-opacity=".138"/><path d="m49.804 30.586h-24.827l1.296-6.06h15.13l1.388-6.524h-21.749l-6.849 32.3h6.571l3.01-14.11h15.761l-13.695 13.558 2.406 4.257c1.11-.74 2.915-.833 4.164-.833 2.221 0 4.396.741 6.663.741 2.079 0 4.206-.139 7.677-1.805l1.213-5.691c-2.36.971-5.853 1.897-8.89 1.897-1.249 0-2.406-.278-3.609-.463l13.276-12.91 1.064-4.35" fill="#e9e6e5"/><path d="m42.563 19l-1.156 5.531h-15.12l-1.313 6.06h1.219l1.094-5.063h15.13l1.375-6.531h-1.219m7 12.594l-.813 3.344-13.281 12.906c.581.089 1.144.222 1.719.313l12.563-12.219 1.063-4.344h-1.25m-25.781 4.594l-3 14.13h-5.375l-.219 1h6.594l3-14.12h13.75l1-1h-15.75m25.19 11.219c-.392.161-.865.314-1.313.469l-.906 4.219c-3.471 1.666-5.609 1.813-7.688 1.813-2.267 0-4.435-.75-6.656-.75-1.137 0-2.729.085-3.844.656l.688 1.188c1.11-.74 2.907-.844 4.156-.844 2.221 0 4.39.75 6.656.75 2.079 0 4.217-.147 7.688-1.813l1.219-5.688" fill="#5e0f00" fill-opacity=".131" color="#000"/><path d="m2 0l-2 1h2.281c-.171-.295-.281-.635-.281-1m4 0c0 .365-.11.705-.281 1h4.563c-.171-.295-.281-.635-.281-1h-4m8 0c0 .365-.11.705-.281 1h4.563c-.171-.295-.281-.635-.281-1h-4m8 0c0 .365-.11.705-.281 1h4.563c-.171-.295-.281-.635-.281-1h-4m8 0c0 .365-.11.705-.281 1h2.281 2.281c-.171-.295-.281-.635-.281-1h-2-2m8 0c0 .365-.11.705-.281 1h4.563c-.171-.295-.281-.635-.281-1h-4m8 0c0 .365-.11.705-.281 1h4.563c-.171-.295-.281-.635-.281-1h-4m8 0c0 .365-.11.705-.281 1h4.563c-.171-.295-.281-.635-.281-1h-4m8 0c0 .365-.11.705-.281 1h2.281l-2-1" fill="#1f0700" fill-opacity=".07"/></svg>
